!!!!SEGMENT: Snf0119-Ecce_Maria_genuit_II.krn
!!!id: Snf0119
!!!AGN: Motet
!!!SCT: Edwards, Gasch, Tröster (2021)
!!!voices: 4
!!!COM: Ludwig Senfl
!!!OTL: Ecce Maria genuit II
**kern	**text	**kern	**text	**kern	**text	**kern	**text
*part4	*part4	*part3	*part3	*part2	*part2	*part1	*part1
*staff4	*staff4	*staff3	*staff3	*staff2	*staff2	*staff1	*staff1
*I"Bassus	*	*I"Tenor	*	*I"Altus	*	*I"Superius	*
*I'B	*	*I'T	*	*I'A	*	*I'S	*
*clefF4	*	*clefGv2	*	*clefGv2	*	*clefG2	*
*k[b-]	*	*k[b-]	*	*k[b-]	*	*k[b-]	*
*F:	*	*F:	*	*F:	*	*F:	*
*M2/1	*	*M2/1	*	*M2/1	*	*M2/1	*
*met(C|)	*	*met(C|)	*	*met(C|)	*	*met(C|)	*
!!section: Prima pars: Ecce Maria genuit
!!!OMD: Prima pars: Ecce Maria genuit
=1	=1	=1	=1	=1	=1	=1	=1
0BB-y	Ec-	0B-y	Ec-	0d	Ec-	0b-y	Ec-
=2	=2	=2	=2	=2	=2	=2	=2
1.BB-y	-ce	0B-y	-ce	[0d	-ce	0f	-ce
2C	Ma-	.	.	.	.	.	.
=3	=3	=3	=3	=3	=3	=3	=3
0D	-ri-	0A	.	0d]	.	0f	Ma-
=4	=4	=4	=4	=4	=4	=4	=4
1GG	-a,	2.G	Ma-	2.B-y	Ma-	0g	.
.	.	4A	.	4c	.	.	.
2.GG	Ma-	2B-y	.	2d	.	.	.
.	.	[2G	.	2e-i	.	.	.
4AA	.	.	.	.	.	.	.
=5	=5	=5	=5	=5	=5	=5	=5
2BB-y	-ri-	2G]	.	2d	.	0g	-ri-
2C	.	4F	.	1c	.	.	.
.	.	4E	.	.	.	.	.
1GG	-a	1D	-ri-	.	.	.	.
.	.	.	.	2B-y	-ri-	.	.
=6	=6	=6	=6	=6	=6	=6	=6
2r	.	1C	-a	1c	-a	0g	-a
2.C	ge-	.	.	.	.	.	.
.	.	1c	ge-	1e-i	.	.	.
4D	.	.	.	.	.	.	.
4E	.	.	.	.	.	.	.
4F	.	.	.	.	.	.	.
=7	=7	=7	=7	=7	=7	=7	=7
1G	-nu-	1B-y	-nu-	2.d	ge-	0r	.
.	.	.	.	4e	.	.	.
2F	-it	2c	-it	4f	.	.	.
.	.	.	.	4g	.	.	.
[2B-y	no-	[2d	no-	[2f	.	.	.
=8	=8	=8	=8	=8	=8	=8	=8
4B-]	.	4d]	.	2f]	.	0b-y	ge-
4A	.	4c	.	.	.	.	.
4G	.	4B-y	.	4e	.	.	.
4F	.	4A	.	4d	.	.	.
1G	.	1B-y	.	1e	-nu-	.	.
=9	=9	=9	=9	=9	=9	=9	=9
1F	.	1c	.	0f	-it	0a	-nu-
1D	-bis	1d	.	.	.	.	.
=10	=10	=10	=10	=10	=10	=10	=10
1G	Sal-	1B-y	-bis	1d	no-	0g	-it
2E	-va-	2G	Sal-	1e	.	.	.
2C	.	[2c	-va-	.	.	.	.
=11	=11	=11	=11	=11	=11	=11	=11
2.F	-to-	4c]	.	1.f	.	0a	no-
.	.	4B-y	.	.	.	.	.
.	.	4A	.	.	.	.	.
4E	.	4G	.	.	.	.	.
2D	.	2F	.	.	.	.	.
2C	.	[2c	-to-	4e	.	.	.
.	.	.	.	4f	.	.	.
=12	=12	=12	=12	=12	=12	=12	=12
0E-X	.	2c]	.	2g	.	0g	-bis
.	.	2B-y	.	2.G	.	.	.
.	.	2c	-rem,	.	.	.	.
.	.	.	.	4A	.	.	.
.	.	[2B-y	Sal-	4B-y	.	.	.
.	.	.	.	4c	.	.	.
=13	=13	=13	=13	=13	=13	=13	=13
0D	-rem,	2B-]	.	1d	-bis	0f	.
.	.	4A	.	.	.	.	.
.	.	4G	.	.	.	.	.
.	.	1A	-va-	2r	.	.	.
.	.	.	.	[2d	Sal-	.	.
=14	=14	=14	=14	=14	=14	=14	=14
0G	Sal-	1G	-to-	2d]	.	0g	Sal-
.	.	.	.	2B-y	-va-	.	.
.	.	1B-y	.	2d	-to-	.	.
.	.	.	.	2e	.	.	.
=15	=15	=15	=15	=15	=15	=15	=15
1.F	-va-	0c	.	0f	.	0a	.
2G	.	.	.	.	.	.	.
=16	=16	=16	=16	=16	=16	=16	=16
1A	-to-	1c	-rem,	1e	.	0a	-va-
1F	.	1d	.	1f	.	.	.
=17	=17	=17	=17	=17	=17	=17	=17
1G	.	1B-y	Sal-	1d	-rem,	1g	-to-
2F	.	2c	-va-	2r	.	2a	.
2D	.	2B-y	.	[2d	[Sal-	[2b-y	.
=18	=18	=18	=18	=18	=18	=18	=18
1E	.	1G	-to-	2d]	.	4b-]	.
.	.	.	.	.	.	4a	.
.	.	.	.	2c	-va-	1g	.
1D	-rem,	1A	.	1d	-to-	.	.
.	.	.	.	.	.	2f#i	.
=19	=19	=19	=19	=19	=19	=19	=19
2r	.	1G	-rem,	0B-y	-rem,]	0g	-rem,
2.GG	quem	.	.	.	.	.	.
.	.	1r	.	.	.	.	.
4AA	.	.	.	.	.	.	.
4BB-y	.	.	.	.	.	.	.
4C	.	.	.	.	.	.	.
=20	=20	=20	=20	=20	=20	=20	=20
1D	.	1F	quem	0r	.	0r	.
2E	Jo-	2G	Jo-	.	.	.	.
2F	.	2A	.	.	.	.	.
=21	=21	=21	=21	=21	=21	=21	=21
2D	-an-	1.B-y	-an-	0r	.	0r	.
2.E-X	.	.	.	.	.	.	.
4D	.	.	.	.	.	.	.
4C	.	[2c	.	.	.	.	.
4BB-y	.	.	.	.	.	.	.
=22	=22	=22	=22	=22	=22	=22	=22
2AA	.	4c]	.	0r	.	0r	.
.	.	4B-y	.	.	.	.	.
2BB-y	.	1B-y	.	.	.	.	.
1C	.	.	.	.	.	.	.
.	.	2A	.	.	.	.	.
=23	=23	=23	=23	=23	=23	=23	=23
1BB-y	-nes,	1B-y	-nes,	1d	quem	1f	quem
2r	.	2r	.	2e	Jo-	2g	Jo-
2F	Jo-	2c	Jo-	2f	.	2a	.
=24	=24	=24	=24	=24	=24	=24	=24
2.G	-an-	2B-y	-an-	2.d	-an-	1.b-y	-an-
.	.	1G	.	.	.	.	.
4A	.	.	.	4c	.	.	.
2B-y	.	.	.	4d	.	.	.
.	.	.	.	4e	.	.	.
2A	.	2A	.	[2f	.	[2cc	.
=25	=25	=25	=25	=25	=25	=25	=25
1G	.	1B-y	.	2f]	.	4cc]	.
.	.	.	.	.	.	4b-y	.
.	.	.	.	2e	.	1b-y	.
1F	.	1c	.	1f	-nes	.	.
.	.	.	.	.	.	2a	.
=26	=26	=26	=26	=26	=26	=26	=26
1BB-y	-nes	0B-y	-nes	1d	vi-	[0b-y	-nes
1E-X	vi-	.	.	1g	.	.	.
=27	=27	=27	=27	=27	=27	=27	=27
2D	.	1r	.	2f	.	0b-]	.
1E-i	.	.	.	1g	.	.	.
.	.	1G	vi-	.	.	.	.
4D	.	.	.	4f	.	.	.
4C	.	.	.	4e	.	.	.
=28	=28	=28	=28	=28	=28	=28	=28
2BB-y	.	1B-y	-dens	1d	.	1r	.
2D	.	.	.	.	.	.	.
1C	.	1c	.	1e	.	1g	vi-
=29	=29	=29	=29	=29	=29	=29	=29
2BB-y	-dens	1d	.	0f	-dens	1b-y	-dens
1B-y	ex-	.	.	.	.	.	.
.	.	1c	.	.	.	1cc	.
2A	-cla-	.	.	.	.	.	.
=30	=30	=30	=30	=30	=30	=30	=30
1B-y	-ma-	1B-y	.	2r	.	1dd	.
.	.	.	.	2.f	ex-	.	.
1F	.	1A	.	.	.	1cc	.
.	.	.	.	4c	-cla-	.	.
.	.	.	.	[2f	-ma-	.	.
=31	=31	=31	=31	=31	=31	=31	=31
1G	.	1r	.	2f]	.	1b-y	.
.	.	.	.	2e	.	.	.
1D	.	1F	ex-	1f	.	1a	.
=32	=32	=32	=32	=32	=32	=32	=32
1E-X	.	1G	-cla-	1B-y	.	0r	.
2E-i	-bat,	1B-y	-ma-	2G	-bat,	.	.
[2D	di-	.	.	[2d	[ex-	.	.
=33	=33	=33	=33	=33	=33	=33	=33
4D]	.	1A	.	2d]	.	1f	ex-
4C	.	.	.	.	.	.	.
4BB-y	.	.	.	2d	-cla-	.	.
4AA	.	.	.	.	.	.	.
1GG	.	1B-y	.	1d	-ma-	[1g	-cla-
=34	=34	=34	=34	=34	=34	=34	=34
1C	-cens,	1c	.	1e	.	1g]	.
2GG	[di-	2B-y	.	1d	-bat,]	1b-y	-ma-
2BB-y	.	[2G	.	.	.	.	.
=35	=35	=35	=35	=35	=35	=35	=35
2C	.	2G]	.	2r	.	1a	.
2D	.	2F	.	1d	di-	.	.
2GG	-cens,	2G	-bat,	.	.	1b-y	-bat,
[2G	ex-	2B-y	di-	2d	.	.	.
=36	=36	=36	=36	=36	=36	=36	=36
2G]	.	1A	.	2e	.	1cc	.
2F	-cla-	.	.	2f	.	.	.
2G	-ma-	2G	-cens,	2d	.	2b-y	di-
2D	.	[2d	di-	[2f	.	[2a	.
=37	=37	=37	=37	=37	=37	=37	=37
2F	-bat	4d]	.	4f]	.	4a]	.
.	.	4c	.	4e	.	4g	.
2G	.	2B-y	.	4d	.	1g	.
.	.	.	.	4c	.	.	.
1D	di-	1A	.	1d	.	.	.
.	.	.	.	.	.	2f#i	.
=38	=38	=38	=38	=38	=38	=38	=38
1E-X	-cens,]	1G	-cens,	1B-y	-cens,	1g	-cens,
[1BB-y	‘Ec-	[1d	‘Ec-	[1f	‘Ec-	[1b-y	‘Ec-
=39	=39	=39	=39	=39	=39	=39	=39
1BB-]	.	1d]	.	1f]	.	1b-]	.
1BB-y	-ce	1d	-ce	1f	-ce	1b-y	-ce
=40	=40	=40	=40	=40	=40	=40	=40
1F	a-	1c	a-	1f	a-	1a	a-
2G	-gnus	2B-y	-gnus	2d	-gnus	2g	-gnus
[2F	De-	[2c	De-	[2f	De-	[2a	De-
=41	=41	=41	=41	=41	=41	=41	=41
4F]	.	4c]	.	4f]	.	4a]	.
4E	.	4G	.	4g	.	4g	.
2G	.	2B-y	.	2e	.	1g	.
1D	.	1A	.	1d	.	.	.
.	.	.	.	.	.	2f#i	.
=42	=42	=42	=42	=42	=42	=42	=42
1E-X	-i.	1G	-i.	1B-y	-i.	1g	-i.
[1BB-y	Ec-	[1d	Ec-	[1f	Ec-	[1b-y	Ec-
=43	=43	=43	=43	=43	=43	=43	=43
1BB-]	.	1d]	.	1f]	.	1b-]	.
1BB-y	-ce	1d	-ce	1f	-ce	1b-y	-ce
=44	=44	=44	=44	=44	=44	=44	=44
1F	qui	1c	qui	1f	qui	1a	qui
2G	tol-	2B-y	tol-	2d	tol-	2g	tol-
[2F	.	[2c	.	[2f	.	[2a	.
=45	=45	=45	=45	=45	=45	=45	=45
4F]	.	4c]	.	4f]	.	4a]	.
4E	.	4G	.	4g	.	4g	.
2G	.	2B-y	.	2e	.	1g	.
1D	.	1A	.	2d	.	.	.
.	.	.	.	2f	.	2f	.
=46	=46	=46	=46	=46	=46	=46	=46
0E-X	-lit	1G	-lit	2e	.	0g	-lit
.	.	.	.	1d	.	.	.
.	.	1r	.	.	.	.	.
.	.	.	.	2c	.	.	.
=47	=47	=47	=47	=47	=47	=47	=47
1.D	pec-	1A	pec-	1d	-lit	0f	pec-
.	.	2B-y	-ca-	1d	pec-	.	.
2C	.	2A	.	.	.	.	.
=48	=48	=48	=48	=48	=48	=48	=48
2BB-y	-ca-	2G	.	2.d	-ca-	0g	-ca-
2AA	.	1F	-ta	.	.	.	.
.	.	.	.	4c	.	.	.
1GG	.	.	.	1B-y	.	.	.
.	.	2E	.	.	.	.	.
=49	=49	=49	=49	=49	=49	=49	=49
2FF	-ta	2F	mun-	1A	.	0a	.
2F	mun-	2D	.	.	.	.	.
2D	.	2.F	.	[1d	-ta	.	.
[2F	.	.	.	.	.	.	.
.	.	4G	.	.	.	.	.
=50	=50	=50	=50	=50	=50	=50	=50
4F]	.	2A	.	0d]	.	0a	-ta
4G	.	.	.	.	.	.	.
2A	.	2D	-di,	.	.	.	.
2D	-di,	2r	.	.	.	.	.
2F	mun-	2A	mun-	.	.	.	.
=51	=51	=51	=51	=51	=51	=51	=51
2G	.	2B-y	.	2r	.	0g	mun-
2.E-X	.	2.G	.	1e-X	mun-	.	.
4F	.	4A	.	.	.	.	.
2G	.	2B-y	.	2d	.	.	.
=52	=52	=52	=52	=52	=52	=52	=52
2C	.	2c	.	2c	.	0g	-di,’
2BB-y	.	1d	.	2G	.	.	.
1E-i	.	.	.	1G	-di,	.	.
.	.	2c	.	.	.	.	.
=53	=53	=53	=53	=53	=53	=53	=53
1.D	-di,’	0d	-di,’	[0A	pec-	1.f	al-
4C	.	.	.	.	.	4e	.
4BB-y	.	.	.	.	.	4d	.
=54	=54	=54	=54	=54	=54	=54	=54
1AA	al-	1c	al-	1A]	.	1e	-le-
1BB-y	-le-	1B-y	-le-	1F	-ca-	1d	.
=55	=55	=55	=55	=55	=55	=55	=55
1AA	-lu-	1c	-lu-	1A	-ta	2e	-lu-
.	.	.	.	.	.	2f	.
1GG	.	1d	-ia,	2.B-y	mun-	1g	.
.	.	.	.	4A	.	.	.
=56	=56	=56	=56	=56	=56	=56	=56
1.D	-ia,	2r	.	2F	-di,’	1a	.
.	.	1d	al-	1f	al-	.	.
.	.	.	.	.	.	2b-y	.
[2F	al-	[2c	-le-	[2f	-le-	[2a	.
=57	=57	=57	=57	=57	=57	=57	=57
2F]	.	2c]	.	4f]	.	4a]	.
.	.	.	.	4e	.	4g	.
2G	-le-	2B-y	.	4d	.	1g	.
.	.	.	.	4c	.	.	.
1D	-lu-	1A	-lu-	1d	-lu-	.	.
.	.	.	.	.	.	2f#i	.
=58	=58	=58	=58	=58	=58	=58	=58
00GGl	-ia.	00Gl	-ia.	00dl	-ia.	00gl	.
==	==	==	==	==	==	==	==
*-	*-	*-	*-	*-	*-	*-	*-
!!!system-decoration: [*]
!!!RDF**kern: i = editorial accidental
!!!RDF**kern: l = terminal long
!!!PTL: <i> New Senfl Edition: Motets for Four Voices (A-I) </i>
!!!PPR: Hollitzer Verlag
!!!PC#: Denkmäler der Tonkunst in Österreich 163.1
!!!PDT: 2021
!!!PED: Scott Lee Edwards, Stefan Gasch, and Sonja Tröster
!!!YEC: Copyright 2021 Denkmäler der Tonkunst in Österreich
!!!YEM: CC-BY-NC 4.0 (https://creativecommons.org/licenses/by-nc/4.0/legalcode)
!!!EED: Benjamin Ory
!!!EEV: 2023/10/23
!!!verovio: header true
!!!header-left: @{PTL}\n@{PED}, eds.\n@{PC#} (@{PDT})&nbsp;\n
!!!header-right:
!!!header-center:
